!!!OTL: Graf und Nonne (Die Nonne) Du hast gesagt, du nehmest mich
!!!ARE: Europa, Osteuropa, Ungarn, Tata, Tarjan
!!!YOR: 8, S. 107
!!    1983 aufgezeichnet
!!!SCT: Q0155q
!!!YEM: Copyright 1995, estate of Helmut Schaffrath.
**kern
*ICvox
*Ivox
*M2/4
*k[b-]
*F:
{8c
=1
8f
8f
8e
8d
=2
8d
8f
8c}
{8c
=3
8f
8f
8g
8g
=4
4a
8r}
{8c
=5
8.a
16a
8a
8cc
=6
4cc
8b-}
{8a
=7
8.g
16f
8e
8d
=8
8c
8b-
8a}
{8g
=9
8cc
8b-
8b-
8b-
=10
4a
8r}
==
!!!AGN: Ballade, Standesunterschied, vergebliche Werbung, Liebe, Klage, Tod
!!!ONB: ESAC (Essen Associative Code) Database: BALLADE
!!!AMT: simple duple
!!!AIN: vox
!!!EED: Helmut Schaffrath
!!!EEV: 1.0
*-
